public/icons/authentic.svg

<svg width="81" height="80" viewBox="0 0 81 80" fill="none" xmlns="http://www.w3.org/2000/svg">
<rect x="1.90015" y="1.5" width="77" height="77" rx="38.5" fill="#E8F1FC"/>
<rect x="1.90015" y="1.5" width="77" height="77" rx="38.5" stroke="#093160" stroke-width="3"/>
<g clip-path="url(#clip0_1485_20026)">
<path d="M49.2126 51.8652L57.489 43.5889L59.6863 45.7861L49.2126 56.2598L43.4265 50.4736L45.6238 48.2764L49.2126 51.8652ZM66.4001 33.75V65H35.1501V45.9326C34.1573 46.1442 33.1156 46.25 32.0251 46.25C29.8604 46.25 27.8341 45.8431 25.946 45.0293C24.058 44.2155 22.3979 43.1006 20.9656 41.6846C19.5333 40.2686 18.4184 38.6165 17.6208 36.7285C16.8233 34.8405 16.4164 32.806 16.4001 30.625C16.4001 28.4603 16.807 26.4339 17.6208 24.5459C18.4347 22.6579 19.5496 20.9977 20.9656 19.5654C22.3816 18.1331 24.0336 17.0182 25.9216 16.2207C27.8097 15.4232 29.8442 15.0163 32.0251 15C34.1899 15 36.2162 15.4069 38.1042 16.2207C39.9923 17.0345 41.6524 18.1494 43.0847 19.5654C44.517 20.9814 45.6319 22.6335 46.4294 24.5215C47.227 26.4095 47.6339 28.444 47.6501 30.625C47.6501 31.7155 47.5444 32.7572 47.3328 33.75H66.4001ZM19.5251 30.625C19.5251 32.3503 19.8507 33.9697 20.5017 35.4834C21.1528 36.9971 22.0479 38.3154 23.1873 39.4385C24.3266 40.5615 25.6531 41.4567 27.1667 42.124C28.6804 42.7913 30.2999 43.125 32.0251 43.125C33.7504 43.125 35.3699 42.7995 36.8835 42.1484C38.3972 41.4974 39.7156 40.6022 40.8386 39.4629C41.9617 38.3236 42.8569 36.9971 43.5242 35.4834C44.1915 33.9697 44.5251 32.3503 44.5251 30.625C44.5251 28.8997 44.1996 27.2803 43.5486 25.7666C42.8975 24.2529 42.0024 22.9346 40.863 21.8115C39.7237 20.6885 38.3972 19.7933 36.8835 19.126C35.3699 18.4587 33.7504 18.125 32.0251 18.125C30.2999 18.125 28.6804 18.4505 27.1667 19.1016C25.6531 19.7526 24.3347 20.6478 23.2117 21.7871C22.0886 22.9264 21.1934 24.2529 20.5261 25.7666C19.8588 27.2803 19.5251 28.8997 19.5251 30.625ZM63.2751 36.875H46.3562C45.5261 38.7142 44.4356 40.3092 43.0847 41.6602C41.7338 43.0111 40.1306 44.1097 38.2751 44.9561V61.875H63.2751V36.875ZM40.9363 27.0361L30.4626 37.5098L24.6765 31.7236L26.8738 29.5264L30.4626 33.1152L38.739 24.8389L40.9363 27.0361Z" fill="#093160"/>
</g>
<defs>
<clipPath id="clip0_1485_20026">
<rect width="50" height="50" fill="white" transform="translate(16.4001 15)"/>
</clipPath>
</defs>
</svg>

<svg xmlns="http://www.w3.org/2000/svg" width="81" height="80" fill="none"><rect width="77" height="77" x="1.9" y="1.5" fill="#E8F1FC" rx="38.5"/><rect width="77" height="77" x="1.9" y="1.5" stroke="#093160" stroke-width="3" rx="38.5"/><g clip-path="url(#a)"><path fill="#093160" d="m49.213 51.865 8.276-8.276 2.197 2.197L49.213 56.26l-5.787-5.786 2.198-2.198zM66.4 33.75V65H35.15V45.933a15 15 0 0 1-3.125.317q-3.246 0-6.079-1.22a16 16 0 0 1-4.98-3.345 15.2 15.2 0 0 1-3.345-4.957q-1.197-2.832-1.22-6.103 0-3.247 1.22-6.08a16 16 0 0 1 3.345-4.98 15.2 15.2 0 0 1 4.956-3.344q2.832-1.197 6.103-1.221 3.247 0 6.08 1.22a16 16 0 0 1 4.98 3.345 15.2 15.2 0 0 1 3.344 4.956q1.197 2.833 1.221 6.104 0 1.635-.317 3.125zm-46.875-3.125q0 2.588.977 4.858a12.3 12.3 0 0 0 2.685 3.956 13.2 13.2 0 0 0 3.98 2.685q2.27 1 4.858 1.001t4.858-.977a12.3 12.3 0 0 0 3.956-2.685 13.2 13.2 0 0 0 2.685-3.98q1-2.27 1.001-4.858t-.976-4.858a12.3 12.3 0 0 0-2.686-3.956 13.2 13.2 0 0 0-3.98-2.685q-2.27-1-4.858-1.001t-4.858.977a12.3 12.3 0 0 0-3.955 2.685 13.2 13.2 0 0 0-2.686 3.98q-1 2.27-1 4.858m43.75 6.25H46.356q-1.245 2.76-3.271 4.785-2.026 2.027-4.81 3.296v16.919h25zm-22.339-9.839L30.463 37.51l-5.786-5.786 2.197-2.198 3.589 3.59 8.276-8.277z"/></g><defs><clipPath id="a"><path fill="#fff" d="M16.4 15h50v50h-50z"/></clipPath></defs></svg>
